svg/animals/cow.svg

<svg width="576" height="512" viewBox="0 0 576 512" fill="none" xmlns="http://www.w3.org/2000/svg">
<path d="M203.294 344.941C213.706 340.53 226.544 336.603 241.809 333.162C257.074 329.721 272.471 328 288 328C317.294 328 345.529 333.647 372.706 344.941C370.588 330.647 371.559 316.927 375.618 303.78C379.677 290.632 386.471 275.412 396 258.118H358.441C352.441 258.118 347.279 255.868 342.956 251.368C338.632 246.868 336.471 241.53 336.471 235.353C336.471 229.177 338.632 223.838 342.956 219.338C347.279 214.838 352.441 212.588 358.441 212.588H409.765C411 194.588 411.132 182.368 410.162 175.927C409.191 169.485 406.765 164.324 402.882 160.441C397.235 154.971 387.618 150.471 374.029 146.941C360.441 143.412 348.706 141.647 338.824 141.647H237.176C227.294 141.647 215.647 143.412 202.235 146.941C188.824 150.471 179.294 154.971 173.647 160.441C169.765 164.324 167.338 169.485 166.368 175.927C165.397 182.368 165.529 194.588 166.765 212.588H217.824C223.824 212.588 229.029 214.838 233.441 219.338C237.853 223.838 240.059 229.177 240.059 235.353C240.059 241.53 237.853 246.868 233.441 251.368C229.029 255.868 223.824 258.118 217.824 258.118H180.529C189.882 275.059 196.544 290.191 200.515 303.515C204.485 316.838 205.412 330.647 203.294 344.941ZM203.294 80H372.706C383.471 80 394.765 96.4707 406.588 107.765C415.412 107.765 423.353 107.191 430.412 106.044C437.471 104.897 443.779 103.088 449.338 100.618C454.897 98.1472 459.618 95.6765 463.5 93.206C467.382 90.7354 471.441 87.1177 475.676 82.353C479.912 77.5883 483.309 73.5736 485.868 70.3089C488.427 67.0442 492.044 62.1472 496.721 55.6177C501.397 49.0883 505.235 43.8824 508.235 40.0001C512.118 50.5883 514.279 60.5589 514.721 69.9119C515.162 79.2648 514.147 87.3383 511.676 94.1324C509.206 100.927 505.676 107.191 501.088 112.927C496.5 118.662 491.471 123.382 486 127.088C480.529 130.794 474.574 134.015 468.132 136.75C461.691 139.485 455.647 141.515 450 142.838C444.353 144.162 438.971 145.088 433.853 145.618C435.088 150.382 436.456 158.147 437.956 168.912C439.456 179.677 440.294 187.53 440.471 192.471C441.882 191.059 453.485 185.147 475.279 174.735C497.074 164.324 508.765 159.118 510.353 159.118C512.294 159.118 517.941 162.735 527.294 169.971C536.647 177.206 546.618 185.235 557.206 194.059C567.794 202.882 574.059 208 576 209.412C568.765 214.353 562.677 219.603 557.735 225.162C552.794 230.721 549.265 235.397 547.147 239.191C545.029 242.985 542.603 246.559 539.868 249.912C537.132 253.265 533.294 255.824 528.353 257.588C523.412 259.353 516.706 260.235 508.235 260.235C501.529 260.235 495 259.132 488.647 256.927C482.294 254.721 475.897 251.28 469.456 246.603C463.015 241.927 458.074 238.088 454.632 235.088C451.191 232.088 446.382 227.588 440.206 221.588C438.971 235.177 436.456 247.618 432.662 258.912C428.868 270.206 425.118 279.074 421.412 285.515C417.706 291.956 414.353 300.338 411.353 310.662C408.353 320.985 406.765 332.412 406.588 344.941C406.412 352.706 409.191 364.618 414.926 380.677C420.662 396.735 423.529 407.412 423.529 412.706C423.529 423.294 420.221 432.78 413.603 441.162C406.985 449.544 398.779 456.118 388.985 460.882C379.191 465.647 367.897 469.574 355.103 472.662C342.309 475.75 330.485 477.824 319.632 478.882C308.779 479.941 298.235 480.471 288 480.471C277.765 480.471 267.221 479.941 256.368 478.882C245.515 477.824 233.691 475.75 220.897 472.662C208.103 469.574 196.809 465.647 187.015 460.882C177.221 456.118 169.015 449.544 162.397 441.162C155.779 432.78 152.471 423.294 152.471 412.706C152.471 407.412 155.338 396.735 161.074 380.677C166.809 364.618 169.588 352.706 169.412 344.941C169.235 332.412 167.647 320.985 164.647 310.662C161.647 300.338 158.294 291.956 154.588 285.515C150.882 279.074 147.132 270.206 143.338 258.912C139.544 247.618 137.029 235.177 135.794 221.588C129.618 227.588 124.809 232.088 121.368 235.088C117.926 238.088 112.985 241.927 106.544 246.603C100.103 251.28 93.7059 254.721 87.3529 256.927C81 259.132 74.4706 260.235 67.7647 260.235C59.2941 260.235 52.5882 259.353 47.6471 257.588C42.7059 255.824 38.8676 253.265 36.1324 249.912C33.3971 246.559 30.9706 242.985 28.8529 239.191C26.7353 235.397 23.2059 230.721 18.2647 225.162C13.3235 219.603 7.23529 214.353 0 209.412C1.76471 208.177 8.02941 203.103 18.7941 194.191C29.5588 185.28 39.6177 177.206 48.9706 169.971C58.3235 162.735 63.9706 159.118 65.9118 159.118C67.5 159.118 79.1471 164.324 100.853 174.735C122.559 185.147 134.118 191.059 135.529 192.471C135.706 187.53 136.588 179.677 138.176 168.912C139.765 158.147 141.176 150.382 142.412 145.618C137.294 145.088 131.912 144.162 126.265 142.838C120.618 141.515 114.574 139.485 108.132 136.75C101.691 134.015 95.6912 130.794 90.1324 127.088C84.5735 123.382 79.5 118.662 74.9118 112.927C70.3235 107.191 66.8382 100.927 64.4559 94.1324C62.0735 87.3383 61.0588 79.2648 61.4118 69.9119C61.7647 60.5589 63.8824 50.5883 67.7647 40.0001C70.7647 43.8824 74.603 49.0883 79.2794 55.6177C83.9559 62.1472 87.5735 67.0442 90.1324 70.3089C92.6912 73.5736 96.0882 77.5883 100.324 82.353C104.559 87.1177 108.618 90.7354 112.5 93.206C116.382 95.6765 121.103 98.1472 126.662 100.618C132.221 103.088 138.529 104.897 145.588 106.044C152.647 107.191 160.588 107.765 169.412 107.765C181.235 96.4707 192.529 80 203.294 80ZM349.412 372.206C342.706 372.206 337.191 374.103 332.868 377.897C328.544 381.691 326.382 386.765 326.382 393.118V414.03C326.382 420.382 328.544 425.456 332.868 429.25C337.191 433.044 342.706 434.941 349.412 434.941C355.941 434.941 361.412 433.044 365.824 429.25C370.235 425.456 372.441 420.382 372.441 414.03V393.118C372.441 386.765 370.235 381.691 365.824 377.897C361.412 374.103 355.941 372.206 349.412 372.206ZM226.588 372.206C220.059 372.206 214.588 374.103 210.176 377.897C205.765 381.691 203.559 386.765 203.559 393.118V414.03C203.559 420.382 205.765 425.456 210.176 429.25C214.588 433.044 220.059 434.941 226.588 434.941C233.294 434.941 238.809 433.044 243.132 429.25C247.456 425.456 249.618 420.382 249.618 414.03V393.118C249.618 386.765 247.456 381.691 243.132 377.897C238.809 374.103 233.294 372.206 226.588 372.206Z" fill="black"/>
</svg>

<svg width="576" height="512" viewBox="0 0 576 512" version="1.1" xmlns="http://www.w3.org/2000/svg"><path fill="currentColor" d="M372.706,80c10.765,0 22.059,16.471 33.882,27.765c8.824,0 16.765,-0.574 23.824,-1.721c7.059,-1.147 13.367,-2.956 18.926,-5.426c5.559,-2.471 10.28,-4.941 14.162,-7.412c3.882,-2.471 7.941,-6.088 12.176,-10.853c4.236,-4.765 7.633,-8.779 10.192,-12.044c2.559,-3.265 6.176,-8.162 10.853,-14.691c4.676,-6.53 8.514,-11.736 11.514,-15.618c3.883,10.588 6.044,20.559 6.486,29.912c0.441,9.353 -0.574,17.426 -3.045,24.22c-2.47,6.795 -6,13.059 -10.588,18.795c-4.588,5.735 -9.617,10.455 -15.088,14.161c-5.471,3.706 -11.426,6.927 -17.868,9.662c-6.441,2.735 -12.485,4.765 -18.132,6.088c-5.647,1.324 -11.029,2.25 -16.147,2.78c1.235,4.764 2.603,12.529 4.103,23.294c1.5,10.765 2.338,18.618 2.515,23.559c1.411,-1.412 13.014,-7.324 34.808,-17.736c21.795,-10.411 33.486,-15.617 35.074,-15.617c1.941,0 7.588,3.617 16.941,10.853c9.353,7.235 19.324,15.264 29.912,24.088c10.588,8.823 16.853,13.941 18.794,15.353c-7.235,4.941 -13.323,10.191 -18.265,15.75c-4.941,5.559 -8.47,10.235 -10.588,14.029c-2.118,3.794 -4.544,7.368 -7.279,10.721c-2.736,3.353 -6.574,5.912 -11.515,7.676c-4.941,1.765 -11.647,2.647 -20.118,2.647c-6.706,0 -13.235,-1.103 -19.588,-3.308c-6.353,-2.206 -12.75,-5.647 -19.191,-10.324c-6.441,-4.676 -11.382,-8.515 -14.824,-11.515c-3.441,-3 -8.25,-7.5 -14.426,-13.5c-1.235,13.589 -3.75,26.03 -7.544,37.324c-3.794,11.294 -7.544,20.162 -11.25,26.603c-3.706,6.441 -7.059,14.823 -10.059,25.147c-3,10.323 -4.588,21.75 -4.765,34.279c-0.176,7.765 2.603,19.677 8.338,35.736c5.736,16.058 8.603,26.735 8.603,32.029c0,10.588 -3.308,20.074 -9.926,28.456c-6.618,8.382 -14.824,14.956 -24.618,19.72c-9.794,4.765 -21.088,8.692 -33.882,11.78c-12.794,3.088 -24.618,5.162 -35.471,6.22c-10.853,1.059 -21.397,1.589 -31.632,1.589c-10.235,0 -20.779,-0.53 -31.632,-1.589c-10.853,-1.058 -22.677,-3.132 -35.471,-6.22c-12.794,-3.088 -24.088,-7.015 -33.882,-11.78c-9.794,-4.764 -18,-11.338 -24.618,-19.72c-6.618,-8.382 -9.926,-17.868 -9.926,-28.456c0,-5.294 2.867,-15.971 8.603,-32.029c5.735,-16.059 8.514,-27.971 8.338,-35.736c-0.177,-12.529 -1.765,-23.956 -4.765,-34.279c-3,-10.324 -6.353,-18.706 -10.059,-25.147c-3.706,-6.441 -7.456,-15.309 -11.25,-26.603c-3.794,-11.294 -6.309,-23.735 -7.544,-37.324c-6.176,6 -10.985,10.5 -14.426,13.5c-3.442,3 -8.383,6.839 -14.824,11.515c-6.441,4.677 -12.838,8.118 -19.191,10.324c-6.353,2.205 -12.882,3.308 -19.588,3.308c-8.471,0 -15.177,-0.882 -20.118,-2.647c-4.941,-1.764 -8.779,-4.323 -11.515,-7.676c-2.735,-3.353 -5.161,-6.927 -7.279,-10.721c-2.118,-3.794 -5.647,-8.47 -10.588,-14.029c-4.942,-5.559 -11.03,-10.809 -18.265,-15.75c1.765,-1.235 8.029,-6.309 18.794,-15.221c10.765,-8.911 20.824,-16.985 30.177,-24.22c9.352,-7.236 15,-10.853 16.941,-10.853c1.588,0 13.235,5.206 34.941,15.617c21.706,10.412 33.265,16.324 34.676,17.736c0.177,-4.941 1.059,-12.794 2.647,-23.559c1.589,-10.765 3,-18.53 4.236,-23.294c-5.118,-0.53 -10.5,-1.456 -16.147,-2.78c-5.647,-1.323 -11.691,-3.353 -18.133,-6.088c-6.441,-2.735 -12.441,-5.956 -18,-9.662c-5.559,-3.706 -10.632,-8.426 -15.22,-14.161c-4.589,-5.736 -8.074,-12 -10.456,-18.795c-2.383,-6.794 -3.397,-14.867 -3.044,-24.22c0.353,-9.353 2.47,-19.324 6.353,-29.912c3,3.882 6.838,9.088 11.514,15.618c4.677,6.529 8.294,11.426 10.853,14.691c2.559,3.265 5.956,7.279 10.192,12.044c4.235,4.765 8.294,8.382 12.176,10.853c3.882,2.471 8.603,4.941 14.162,7.412c5.559,2.47 11.867,4.279 18.926,5.426c7.059,1.147 15,1.721 23.824,1.721c11.823,-11.294 23.117,-27.765 33.882,-27.765l169.412,0Zm-23.294,292.206c-6.706,0 -12.221,1.897 -16.544,5.691c-4.324,3.794 -6.486,8.868 -6.486,15.221l0,20.912c0,6.352 2.162,11.426 6.486,15.22c4.323,3.794 9.838,5.691 16.544,5.691c6.529,0 12,-1.897 16.412,-5.691c4.411,-3.794 6.617,-8.868 6.617,-15.22l0,-20.912c0,-6.353 -2.206,-11.427 -6.617,-15.221c-4.412,-3.794 -9.883,-5.691 -16.412,-5.691Zm-122.824,0c-6.529,0 -12,1.897 -16.412,5.691c-4.411,3.794 -6.617,8.868 -6.617,15.221l0,20.912c0,6.352 2.206,11.426 6.617,15.22c4.412,3.794 9.883,5.691 16.412,5.691c6.706,0 12.221,-1.897 16.544,-5.691c4.324,-3.794 6.486,-8.868 6.486,-15.22l0,-20.912c0,-6.353 -2.162,-11.427 -6.486,-15.221c-4.323,-3.794 -9.838,-5.691 -16.544,-5.691Zm112.236,-230.559l-101.648,0c-9.882,0 -21.529,1.765 -34.941,5.294c-13.411,3.53 -22.941,8.03 -28.588,13.5c-3.882,3.883 -6.309,9.044 -7.279,15.486c-0.971,6.441 -0.839,18.661 0.397,36.661l51.059,0c6,0 11.205,2.25 15.617,6.75c4.412,4.5 6.618,9.839 6.618,16.015c0,6.177 -2.206,11.515 -6.618,16.015c-4.412,4.5 -9.617,6.75 -15.617,6.75l-37.295,0c9.353,16.941 16.015,32.073 19.986,45.397c3.97,13.323 4.897,27.132 2.779,41.426c10.412,-4.411 23.25,-8.338 38.515,-11.779c15.265,-3.441 30.662,-5.162 46.191,-5.162c29.294,0 57.529,5.647 84.706,16.941c-2.118,-14.294 -1.147,-28.014 2.912,-41.161c4.059,-13.148 10.853,-28.368 20.382,-45.662l-37.559,0c-6,0 -11.162,-2.25 -15.485,-6.75c-4.324,-4.5 -6.485,-9.838 -6.485,-16.015c0,-6.176 2.161,-11.515 6.485,-16.015c4.323,-4.5 9.485,-6.75 15.485,-6.75l51.324,0c1.235,-18 1.367,-30.22 0.397,-36.661c-0.971,-6.442 -3.397,-11.603 -7.28,-15.486c-5.647,-5.47 -15.264,-9.97 -28.853,-13.5c-13.588,-3.529 -25.323,-5.294 -35.205,-5.294Z"></path></svg>
